public/images/icons/24x24/profil_24_purple.svg

<svg height="24" viewBox="0 0 24 24" width="24" xmlns="http://www.w3.org/2000/svg"><path d="m15.0023622 0c-.6094488.3692499-1.1055118.80563614-1.5519684 1.23530874.0496062-.23497721.0496062-.47666804-.0496064-.66464981l-.9992126-.38267716c.1771654.34239535.3047244.90634064.3755906 1.35615416-1.1480316-.50352258-2.423622-.78549523-3.7771654-.78549523-4.96063 0-9 3.82005795-9 8.52631578 0 4.70625762 4.03937 8.52631582 9 8.52631582 4.9677166 0 9-3.8200582 9-8.52631582 0-3.08155831-1.7362204-5.79386652-4.3299212-7.29100705.4535432-.55051802 1.580315-.91976792 2.5299212-1.20174055zm-6.0023622 1.51056775c3.656693 0 6.7464566 2.26920848 7.8094488 5.39776214-.5669292.19469539-1.303937.38267716-2.076378.32225438-.992126-.06713621-2.0480314-.50352252-2.9905512-1.93352665-.0779526-.12084537-.2338582-.18798177-.3755904-.18126815-.1133858.01342725-.2267718.07385002-.2905512.16112729-1.3181102 1.75897212-3.323622 2.40348107-5.3149606 2.48404471-1.764567.0671364-3.5007874-.34239543-4.57086622-.81906347 1.04173222-3.14869453 4.14566922-5.43133025 7.80944882-5.43133025zm2.3952756 4.59212591c.9992126 1.26887703 2.1826772 1.80596767 3.2740158 1.88653131.9070866.0671364 1.7291338-.13427261 2.3456692-.34910886.1204724.53037701.1771654 1.08089507.1771654 1.64484037 0 4.29672602-3.656693 7.77438872-8.192126 7.77438872-4.5283464 0-8.19212598-3.4776627-8.19212598-7.77438872 0-.54380444.0566929-1.08089526.17007874-1.59784503 1.21889764.51694977 2.96929124.89962712 4.81181104.83249072 2.0055118-.08056364 4.1244094-.73849983 5.6055118-2.41690851zm-5.492126 2.61831752c-.5031496.04699535-.9.45652718-.9.94662246 0 .52366336.4464566.94662246.9992126.94662246s.9992126-.4229591.9992126-.94662246c0-.63779532-.496063-.94662246-1.0984252-.94662246zm5.1023622.94662246c0 .52366336.4464568.94662246.9992126.94662246.552756 0 .9992126-.4229591.9992126-.94662246 0-.52366358-.4464566-.94662246-.9992126-.94662246-.7015748 0-.992126.54380444-.9992126.94662246zm-4.6417322 2.46390386c-.1913386.0201409-.3614174.1946954-.3614174.3759635 0 .5236634.3188976 1.047327.8362204 1.4904269.5102362.4430998 1.2614174.7854952 2.1614174.7854952.9070866 0 1.6582678-.3423954 2.168504-.7854952.5173228-.4430999.8362204-.9667635.8362204-1.4904269 0-.1946954-.1913386-.3759635-.403937-.3759635zm.5740156.7586407h4.1314962c-.092126.1745545-.2338584.3692499-.4322836.5438044-.3897638.328968-.9425196.5907998-1.6370078.5907998-.6874016 0-1.2401574-.2618318-1.6299212-.5907998-.1984252-.1745545-.3401576-.3692499-.4322836-.5438044z" fill="#1e1169" stroke="#1e1169" stroke-width=".3" transform="translate(3 3)"/></svg>

<svg xmlns="http://www.w3.org/2000/svg" width="24" height="24" viewBox="0 0 24 24">
  <path fill="#1E1169" stroke="#1E1169" stroke-width=".3" d="M15.0023622,0 C14.3929134,0.369249897 13.8968504,0.805636137 13.4503938,1.23530874 C13.5,1.00033153 13.5,0.758640695 13.4007874,0.570658926 L12.4015748,0.187981765 C12.5787402,0.530377124 12.7062992,1.09432241 12.7771654,1.54413593 C11.6291338,1.04061335 10.3535434,0.758640695 9,0.758640695 C4.03937,0.758640695 0,4.57869865 0,9.28495648 C0,13.9912141 4.03937,17.8112723 9,17.8112723 C13.9677166,17.8112723 18,13.9912141 18,9.28495648 C18,6.20339817 16.2637796,3.49108996 13.6700788,1.99394943 C14.123622,1.44343141 15.2503938,1.07418151 16.2,0.792208876 L15.0023622,0 Z M9,1.51056775 C12.656693,1.51056775 15.7464566,3.77977623 16.8094488,6.90832989 C16.2425196,7.10302528 15.5055118,7.29100705 14.7330708,7.23058427 C13.7409448,7.16344806 12.6850394,6.72706175 11.7425196,5.29705762 C11.664567,5.17621225 11.5086614,5.10907585 11.3669292,5.11578947 C11.2535434,5.12921672 11.1401574,5.18963949 11.076378,5.27691676 C9.7582678,7.03588888 7.752756,7.68039783 5.7614174,7.76096147 C3.9968504,7.82809787 2.26063,7.41856604 1.19055118,6.941898 C2.2322834,3.79320347 5.3362204,1.51056775 9,1.51056775 Z M11.3952756,6.10269366 C12.3944882,7.37157069 13.5779528,7.90866133 14.6692914,7.98922497 C15.576378,8.05636137 16.3984252,7.85495236 17.0149606,7.64011611 C17.135433,8.17049312 17.192126,8.72101118 17.192126,9.28495648 C17.192126,13.5816825 13.535433,17.0593452 9,17.0593452 C4.4716536,17.0593452 0.80787402,13.5816825 0.80787402,9.28495648 C0.80787402,8.74115204 0.86456692,8.20406122 0.97795276,7.68711145 C2.1968504,8.20406122 3.947244,8.58673857 5.7897638,8.51960217 C7.7952756,8.43903853 9.9141732,7.78110234 11.3952756,6.10269366 Z M5.9031496,8.72101118 C5.4,8.76800653 5.0031496,9.17753836 5.0031496,9.66763364 C5.0031496,10.191297 5.4496062,10.6142561 6.0023622,10.6142561 C6.5551182,10.6142561 7.0015748,10.191297 7.0015748,9.66763364 C7.0015748,9.02983832 6.5055118,8.72101118 5.9031496,8.72101118 L5.9031496,8.72101118 Z M11.0055118,9.66763364 C11.0055118,10.191297 11.4519686,10.6142561 12.0047244,10.6142561 C12.5574804,10.6142561 13.003937,10.191297 13.003937,9.66763364 C13.003937,9.14397006 12.5574804,8.72101118 12.0047244,8.72101118 C11.3031496,8.72101118 11.0125984,9.26481562 11.0055118,9.66763364 Z M6.3637796,12.1315375 C6.172441,12.1516784 6.0023622,12.3262329 6.0023622,12.507501 C6.0023622,13.0311644 6.3212598,13.554828 6.8385826,13.9979279 C7.3488188,14.4410277 8.1,14.7834231 9,14.7834231 C9.9070866,14.7834231 10.6582678,14.4410277 11.168504,13.9979279 C11.6858268,13.554828 12.0047244,13.0311644 12.0047244,12.507501 C12.0047244,12.3128056 11.8133858,12.1315375 11.6007874,12.1315375 L6.3637796,12.1315375 L6.3637796,12.1315375 Z M6.9377952,12.8901782 L11.0692914,12.8901782 C10.9771654,13.0647327 10.835433,13.2594281 10.6370078,13.4339826 C10.247244,13.7629506 9.6944882,14.0247824 9,14.0247824 C8.3125984,14.0247824 7.7598426,13.7629506 7.3700788,13.4339826 C7.1716536,13.2594281 7.0299212,13.0647327 6.9377952,12.8901782 Z" transform="translate(3 3)"/>
</svg>
